dist/svgs/core-ui-icons/free/cil-golf-alt.svg

<svg xmlns="http://www.w3.org/2000/svg" viewBox="0 0 512 512"><path d="M161.846 320h192l4.923-32h-192l-4.923 32z"/><path d="M467.122 16L450.7 128h-29.525L439.49 16h-32.425l-35.321 216H155.819a48.051 48.051 0 00-47.152 39.019l-9.354 49.106A88 88 0 10188.673 432H314.05a144 144 0 00142.589-123.889L499.464 16zM104 464a56 56 0 1156-56 56.063 56.063 0 01-56 56zm320.963-160.433A111.266 111.266 0 01400 359.585 113.582 113.582 0 01371.477 384a111.226 111.226 0 01-57.427 16H191.633a87.325 87.325 0 00-5.657-24h159.255l4.923-32H164.333q-2.626-2.476-5.451-4.735a87.882 87.882 0 00-27.783-14.99L139.532 280l.571-2.994A16.015 16.015 0 01155.819 264h243.117l17.006-104h30.068z"/></svg>

<svg xmlns="http://www.w3.org/2000/svg" viewBox="0 0 512 512">
  <polygon fill="var(--ci-primary-color, currentColor)" points="161.846 320 353.846 320 358.769 288 166.769 288 161.846 320" class="ci-primary"/>
  <path fill="var(--ci-primary-color, currentColor)" d="M467.122,16,450.7,128H421.175L439.49,16H407.065L371.744,232H155.819a48.051,48.051,0,0,0-47.152,39.019l-9.354,49.106A88,88,0,1,0,188.673,432H314.05A144,144,0,0,0,456.639,308.111L499.464,16ZM104,464a56,56,0,1,1,56-56A56.063,56.063,0,0,1,104,464ZM424.963,303.567A111.266,111.266,0,0,1,400,359.585,113.582,113.582,0,0,1,371.477,384a111.226,111.226,0,0,1-57.427,16H191.633a87.325,87.325,0,0,0-5.657-24H345.231l4.923-32H164.333q-2.626-2.476-5.451-4.735a87.882,87.882,0,0,0-27.783-14.99L139.532,280l.571-2.994A16.015,16.015,0,0,1,155.819,264H398.936l17.006-104H446.01Z" class="ci-primary"/>
</svg>
